dist/assets/images/Codeopen_Color.svg

<?xml version="1.0" encoding="UTF-8"?>
<svg width="25px" height="25px" viewBox="0 0 25 25" version="1.1" xmlns="http://www.w3.org/2000/svg" xmlns:xlink="http://www.w3.org/1999/xlink">
    <!-- Generator: Sketch 47.1 (45422) - http://www.bohemiancoding.com/sketch -->
    <title>Codeopen_Color</title>
    <desc>Created with Sketch.</desc>
    <defs></defs>
    <g id="Landos-" stroke="none" stroke-width="1" fill="none" fill-rule="evenodd">
        <g id="Landos-Copy-3" transform="translate(-711.000000, -10018.000000)">
            <g id="Codeopen" transform="translate(711.000000, 10018.000000)">
                <path d="M0,12.5 C0,5.59644029 5.59644029,0 12.5,0 C19.4035597,0 25,5.59644029 25,12.5 C25,19.4035597 19.4035597,25 12.5,25 C5.59644029,25 0,19.4035597 0,12.5 Z" id="back" fill="#FFFFFF"></path>
                <path d="M19.1618229,10.6683073 C19.160612,10.6598307 19.1585938,10.6521615 19.1573828,10.6440885 C19.1545573,10.6283464 19.1517318,10.6126042 19.1476953,10.5976693 C19.1452734,10.5883854 19.1416406,10.5795052 19.1388151,10.570625 C19.134375,10.556901 19.1299349,10.5435807 19.1246875,10.5302604 C19.1210547,10.5209766 19.1166146,10.5116927 19.1121745,10.5032161 C19.1065234,10.4902995 19.1004687,10.4781901 19.0932031,10.4664844 C19.0883594,10.4576042 19.0827083,10.4491276 19.0774609,10.440651 C19.0701953,10.4289453 19.062526,10.4176432 19.0540495,10.4067448 C19.0479948,10.3986719 19.0415365,10.390599 19.0350781,10.3829297 C19.0261979,10.3724349 19.0169141,10.3623437 19.0072266,10.3526562 C18.9999609,10.3453906 18.993099,10.3377214 18.9854297,10.331263 C18.9749349,10.3219792 18.9644401,10.313099 18.9539453,10.3046224 C18.9454687,10.2981641 18.9373958,10.2917057 18.9289193,10.285651 C18.9256901,10.2836328 18.9228646,10.2808073 18.9196354,10.2787891 L13.0163151,6.34324219 C12.8298307,6.21891927 12.5872396,6.21891927 12.4003516,6.34324219 L6.4974349,10.2787891 C6.49420573,10.2808073 6.49138021,10.2836328 6.48815104,10.285651 C6.47927083,10.2917057 6.47119792,10.2981641 6.463125,10.3046224 C6.45222656,10.313099 6.44173177,10.3219792 6.43164062,10.331263 C6.42397135,10.3377214 6.41670573,10.3453906 6.4094401,10.3526562 C6.3997526,10.3623437 6.39046875,10.3724349 6.38199219,10.3829297 C6.37513021,10.390599 6.36867188,10.3986719 6.36261719,10.4067448 C6.35454427,10.4176432 6.346875,10.4289453 6.33960937,10.440651 C6.33395833,10.4491276 6.32871094,10.4576042 6.32346354,10.4664844 C6.31660156,10.4781901 6.31054687,10.4902995 6.30449219,10.5032161 C6.30045573,10.5116927 6.29601562,10.5209766 6.29238281,10.5302604 C6.28673177,10.5435807 6.28229167,10.556901 6.27785156,10.570625 C6.27502604,10.5795052 6.27179687,10.5883854 6.269375,10.5976693 C6.26533854,10.6126042 6.26251302,10.6283464 6.2596875,10.6440885 C6.25807292,10.6521615 6.25605469,10.6598307 6.2552474,10.6683073 C6.25201823,10.6917187 6.25,10.7159375 6.25,10.7405599 L6.25,14.6761068 C6.25,14.7003255 6.25201823,14.7245443 6.2552474,14.748763 C6.25605469,14.7564323 6.25807292,14.7645052 6.2596875,14.7725781 C6.26251302,14.7883203 6.26533854,14.8036589 6.269375,14.8189974 C6.27179687,14.8282813 6.27502604,14.8371615 6.27785156,14.8460417 C6.28229167,14.859362 6.28673177,14.8730859 6.29238281,14.8868099 C6.29601562,14.8956901 6.30045573,14.9045703 6.30449219,14.9134505 C6.31054687,14.9259635 6.31660156,14.9380729 6.32346354,14.9505859 C6.32871094,14.9590625 6.33395833,14.9675391 6.33960937,14.9760156 C6.346875,14.9877214 6.35454427,14.9986198 6.36261719,15.0095182 C6.36867188,15.0179948 6.37513021,15.0260677 6.38199219,15.033737 C6.39046875,15.0438281 6.3997526,15.0543229 6.4094401,15.0636068 C6.41670573,15.071276 6.42397135,15.0785417 6.43164062,15.0854036 C6.44173177,15.0946875 6.45222656,15.1035677 6.463125,15.1120443 C6.47119792,15.1185026 6.47927083,15.1249609 6.48815104,15.1310156 C6.49138021,15.1330339 6.49420573,15.1358594 6.4974349,15.1378776 L12.4003516,19.0734245 C12.4935937,19.1355859 12.6009635,19.1666667 12.7083333,19.1666667 C12.8157031,19.1666667 12.9230729,19.1355859 13.0163151,19.0734245 L18.9196354,15.1378776 C18.9228646,15.1358594 18.9256901,15.1330339 18.9289193,15.1310156 C18.9373958,15.1249609 18.9454687,15.1185026 18.9539453,15.1120443 C18.9644401,15.1035677 18.9749349,15.0946875 18.9854297,15.0854036 C18.993099,15.0785417 18.9999609,15.071276 19.0072266,15.0636068 C19.0169141,15.0543229 19.0261979,15.0438281 19.0350781,15.033737 C19.0415365,15.0260677 19.0479948,15.0179948 19.0540495,15.0095182 C19.062526,14.9986198 19.0701953,14.9877214 19.0774609,14.9760156 C19.0827083,14.9675391 19.0883594,14.9590625 19.0932031,14.9505859 C19.1004687,14.9380729 19.1065234,14.9259635 19.1121745,14.9134505 C19.1166146,14.9045703 19.1210547,14.8956901 19.1246875,14.8868099 C19.1299349,14.8730859 19.134375,14.859362 19.1388151,14.8460417 C19.1416406,14.8371615 19.1452734,14.8282813 19.1476953,14.8189974 C19.1517318,14.8036589 19.1545573,14.7883203 19.1573828,14.7725781 C19.1585938,14.7645052 19.160612,14.7564323 19.1618229,14.748763 C19.1650521,14.7245443 19.1666667,14.7003255 19.1666667,14.6761068 L19.1666667,10.7405599 C19.1666667,10.7159375 19.1650521,10.6917187 19.1618229,10.6683073 L19.1618229,10.6683073 L19.1618229,10.6683073 Z M13.2633464,7.84238281 L17.6122266,10.7413672 L15.6698828,12.0407031 L13.2633464,10.4309635 L13.2633464,7.84238281 L13.2633464,7.84238281 Z M12.1533203,7.84238281 L12.1533203,10.4309635 L9.7471875,12.0407031 L7.8044401,10.7413672 L12.1533203,7.84238281 L12.1533203,7.84238281 Z M7.36002604,11.7795443 L8.74897135,12.7083333 L7.36002604,13.6371224 L7.36002604,11.7795443 L7.36002604,11.7795443 Z M12.1533203,17.5742839 L7.8044401,14.6752995 L9.7471875,13.3763672 L12.1533203,14.9857031 L12.1533203,17.5742839 L12.1533203,17.5742839 Z M12.7083333,14.0213932 L10.7454036,12.7083333 L12.7083333,11.3952734 L14.6716667,12.7083333 L12.7083333,14.0213932 L12.7083333,14.0213932 Z M13.2633464,17.5742839 L13.2633464,14.9857031 L15.6698828,13.3763672 L17.6122266,14.6752995 L13.2633464,17.5742839 L13.2633464,17.5742839 Z M18.0566406,13.6371224 L16.668099,12.7083333 L18.0566406,11.7795443 L18.0566406,13.6371224 L18.0566406,13.6371224 Z" id="Codepen" fill="#0B0B0A"></path>
            </g>
        </g>
    </g>
</svg>

<svg width="25" height="25" viewBox="0 0 25 25" xmlns="http://www.w3.org/2000/svg"><title>Codeopen_Color</title><g fill="none" fill-rule="evenodd"><path d="M0 12.5C0 5.596 5.596 0 12.5 0S25 5.596 25 12.5 19.404 25 12.5 25 0 19.404 0 12.5z" fill="#FFF"/><path d="M19.162 10.668l-.005-.024a.236.236 0 0 0-.01-.046l-.008-.027a.681.681 0 0 0-.027-.068.287.287 0 0 0-.019-.037l-.016-.025a.39.39 0 0 0-.042-.058.495.495 0 0 0-.028-.03l-.022-.022a.92.92 0 0 0-.031-.026l-.025-.02-.01-.006-5.903-3.936a.555.555 0 0 0-.616 0L6.497 10.28l-.009.007-.025.019a.499.499 0 0 0-.031.026l-.023.022a.387.387 0 0 0-.046.054.5.5 0 0 0-.059.096l-.012.027a.481.481 0 0 0-.014.04l-.009.028-.01.046c0 .008-.003.016-.004.024a.53.53 0 0 0-.005.073v3.935a.55.55 0 0 0 .005.073l.005.024a.591.591 0 0 0 .01.046l.008.027.014.04.012.027a.806.806 0 0 0 .02.038l.016.025a.49.49 0 0 0 .123.136l.025.019.01.007 5.902 3.935a.555.555 0 0 0 .616 0l5.904-3.935.009-.007.025-.019a.92.92 0 0 0 .031-.027c.008-.006.015-.014.022-.021a.488.488 0 0 0 .07-.088l.016-.025a.403.403 0 0 0 .02-.038l.012-.026.014-.041.009-.027a.591.591 0 0 0 .01-.046c0-.008.003-.017.004-.024a.55.55 0 0 0 .005-.073v-3.935a.53.53 0 0 0-.005-.073zm-5.899-2.826l4.35 2.9-1.943 1.299-2.407-1.61V7.842zm-1.11 0v2.589l-2.406 1.61-1.943-1.3 4.35-2.899zM7.36 11.78l1.389.928-1.389.93V11.78zm4.793 5.794l-4.349-2.899 1.943-1.299 2.406 1.61v2.588zm.555-3.553l-1.963-1.313 1.963-1.313 1.964 1.313-1.964 1.313zm.555 3.553v-2.588l2.407-1.61 1.942 1.3-4.349 2.898zm4.794-3.937l-1.389-.929 1.389-.928v1.857z" fill="#0B0B0A"/></g></svg>
